src/images/ico/esports.svg

<svg width="71" height="22" viewBox="0 0 71 22" fill="none" xmlns="http://www.w3.org/2000/svg">
<path fill-rule="evenodd" clip-rule="evenodd" d="M29.8883 9.50232C30.5208 9.47613 31.1432 9.67243 31.6544 10.0593C32.1089 10.4245 32.3639 10.9957 32.3385 11.591C32.3522 12.0895 32.2142 12.5798 31.9441 12.9926C31.6641 13.3912 31.2921 13.7108 30.8621 13.9221C30.3499 14.1756 29.8041 14.3487 29.2426 14.4357C28.5779 14.5458 27.9054 14.5984 27.2323 14.593C27.2305 14.7727 27.2612 14.9513 27.323 15.1192C27.3875 15.2785 27.4932 15.4162 27.6284 15.5171C27.7979 15.6389 27.9888 15.7249 28.1903 15.7703C28.4807 15.837 28.7777 15.868 29.0751 15.8625C29.475 15.8654 29.8738 15.8199 30.2635 15.7269C30.5323 15.6687 30.7956 15.5864 31.0506 15.4809L30.6527 17.1935C30.5044 17.2423 30.3403 17.2875 30.1658 17.3327C29.6835 17.4482 29.1897 17.504 28.6947 17.4991C28.1745 17.5095 27.6563 17.4282 27.1625 17.2586C26.77 17.1239 26.412 16.8988 26.1154 16.6003C25.8474 16.3186 25.6451 15.9772 25.5238 15.6021C25.3968 15.1932 25.3349 14.7657 25.3406 14.3362C25.3406 13.7152 25.4451 13.0989 25.6495 12.5151C25.8439 11.9423 26.1485 11.4163 26.5447 10.9689C27.4035 10.004 28.622 9.46957 29.8883 9.50232ZM29.8639 12.7681C30.0658 12.6684 30.2391 12.5157 30.3665 12.3251C30.452 12.1896 30.5008 12.0329 30.5078 11.8712C30.5184 11.647 30.4226 11.4316 30.2513 11.2943C30.0372 11.1463 29.7823 11.0745 29.5253 11.0899C29.0271 11.0962 28.545 11.2744 28.1554 11.5963C27.7203 11.9363 27.419 12.4788 27.2515 13.2239C27.7939 13.2345 28.3361 13.1921 28.8709 13.0973C29.2158 13.0391 29.5504 12.9281 29.8639 12.7681Z" fill="white"/>
<path d="M36.1064 9.35608C36.4243 9.17443 36.791 9.0838 37.1621 9.09516C37.6271 9.08737 38.0907 9.14562 38.5375 9.26796C38.8742 9.36231 39.1938 9.50447 39.4854 9.68958L40.3402 8.2191C40.2324 8.15689 40.0918 8.08432 39.9219 8.00311C39.7256 7.90769 39.5209 7.82848 39.3101 7.76638C39.0394 7.68758 38.7636 7.62525 38.4845 7.57976C38.1358 7.52355 37.7825 7.49695 37.4288 7.50028C36.2294 7.50028 35.304 7.77387 34.6525 8.32105C33.9985 8.87719 33.6387 9.67894 33.6699 10.5103C33.6619 10.8315 33.7113 11.1517 33.816 11.4573C33.9049 11.701 34.0405 11.9271 34.216 12.1242C34.3892 12.3138 34.5933 12.476 34.8206 12.6046C35.0544 12.7394 35.3082 12.8742 35.5786 13.0089C35.7977 13.1143 36.0023 13.2163 36.1941 13.32C36.3724 13.4178 36.539 13.5337 36.6909 13.6656C36.8275 13.7825 36.9408 13.9218 37.0251 14.0768C37.1094 14.2328 37.1515 14.4062 37.1475 14.5814C37.1555 14.7972 37.1012 15.0111 36.9904 15.2C36.887 15.3635 36.7467 15.5033 36.5795 15.6095C36.398 15.7223 36.1952 15.801 35.9822 15.841C35.7418 15.8872 35.497 15.9098 35.2516 15.9084C34.9831 15.9091 34.7151 15.8848 34.4516 15.8358C34.2148 15.795 33.9815 15.7372 33.7539 15.6631C33.561 15.5942 33.3731 15.5133 33.1914 15.4211C33.0215 15.3382 32.8845 15.2656 32.7749 15.2034V15.2121L32.3402 16.9124C32.5456 17.0223 32.7615 17.1137 32.985 17.1854C33.2762 17.2779 33.5741 17.3507 33.8763 17.4031C34.2625 17.4701 34.6545 17.5025 35.0471 17.4999C36.3573 17.4999 37.3703 17.2263 38.0863 16.6791C38.8023 16.1319 39.1621 15.3296 39.1658 14.2721C39.1734 13.9351 39.1165 13.5997 38.9977 13.282C38.8899 13.0146 38.7314 12.7681 38.5302 12.5545C38.3263 12.3404 38.0892 12.1568 37.827 12.0102C37.5359 11.8452 37.236 11.6946 36.9283 11.5592C36.6114 11.4303 36.3121 11.2655 36.037 11.0685C35.7863 10.8729 35.6504 10.5752 35.6717 10.2684C35.6717 9.83472 35.816 9.53233 36.1064 9.35608Z" fill="white"/>
<path fill-rule="evenodd" clip-rule="evenodd" d="M43.5317 10C44.4981 10 45.2101 10.2442 45.6609 10.7378C46.1247 11.2641 46.3669 11.9458 46.3379 12.6429C46.336 13.2741 46.2366 13.9013 46.0432 14.5029C45.8682 15.0826 45.5798 15.6228 45.1943 16.0928C44.7977 16.5618 44.2997 16.937 43.7369 17.1909C43.0892 17.4764 42.3851 17.6154 41.6761 17.5979C41.4674 17.5979 41.3043 17.5909 41.1885 17.5805C41.0881 17.5723 40.9884 17.5567 40.8903 17.5338L40.501 19.0925L38.3402 20L40.6904 10.4901C40.9178 10.3953 41.1523 10.3183 41.3919 10.2598C41.6463 10.1974 41.8988 10.1455 42.1566 10.1056C42.3838 10.0705 42.6001 10.0502 42.8103 10.0305C42.8387 10.0278 42.8669 10.0252 42.895 10.0225C43.1318 10 43.344 10 43.5317 10ZM43.6878 15.0085C43.9317 14.7065 44.1167 14.3624 44.2333 13.9937C44.3613 13.6007 44.427 13.1906 44.4279 12.7779C44.4283 12.6265 44.4124 12.4756 44.3806 12.3276C44.3509 12.1868 44.2911 12.054 44.2052 11.9379C44.1119 11.817 43.987 11.7236 43.8439 11.6677C43.6485 11.5924 43.4397 11.5571 43.23 11.5638C43.0542 11.5621 42.8784 11.572 42.7039 11.5932C42.5744 11.6118 42.4462 11.6378 42.3198 11.6712L41.2675 15.9213C41.3233 15.943 41.3829 15.9536 41.4428 15.9524H41.648C42.0503 15.9605 42.4487 15.8744 42.8109 15.7013C43.151 15.5365 43.4503 15.3 43.6878 15.0085Z" fill="white"/>
<path fill-rule="evenodd" clip-rule="evenodd" d="M46.9862 16.7163C47.4181 17.2375 48.0783 17.498 48.9668 17.498C49.6294 17.5191 50.2867 17.3702 50.8783 17.0648C51.4118 16.7809 51.8781 16.3817 52.2446 15.8949C52.616 15.4018 52.895 14.8431 53.0676 14.2467C53.2479 13.6384 53.3397 13.0064 53.3402 12.371C53.3402 11.4214 53.1042 10.7059 52.6322 10.2245C52.1344 9.73327 51.4606 9.4722 50.7685 9.50235C50.108 9.48686 49.454 9.63753 48.8641 9.94104C48.3269 10.226 47.8556 10.6249 47.4818 11.1109C47.1061 11.6047 46.8196 12.1628 46.6358 12.7591C46.4438 13.3677 46.3442 14.0027 46.3402 14.642C46.3385 15.5068 46.5526 16.1964 46.9862 16.7163ZM50.2093 15.4797C49.9694 15.6705 49.6727 15.7718 49.3686 15.7667H49.3739C48.9402 15.7667 48.6517 15.6187 48.5102 15.328C48.3518 14.9499 48.2792 14.5401 48.2978 14.1293C48.3021 13.8038 48.3485 13.4802 48.4358 13.1671C48.5188 12.8363 48.6456 12.5187 48.8128 12.2229C48.9742 11.9428 49.1876 11.6975 49.4411 11.5008C49.6794 11.3118 49.973 11.2101 50.2748 11.2119C50.7243 11.2137 51.0163 11.36 51.1597 11.6506C51.3179 12.0288 51.3899 12.4387 51.3703 12.8493C51.3607 13.5219 51.1776 14.1801 50.8394 14.7576C50.6727 15.0342 50.4594 15.2787 50.2093 15.4797Z" fill="white"/>
<path d="M59.364 9.396L59.3148 9.60425L59.3658 9.396H59.364Z" fill="white"/>
<path d="M59.3402 9.5656L59.3214 9.65332L58.9452 11.3574L58.9179 11.4843C58.647 11.4526 58.3747 11.437 58.1023 11.4377C57.8278 11.4379 57.5537 11.4572 57.2815 11.4955C57.0174 11.5273 56.7571 11.5899 56.5052 11.6822L55.2211 17.5H53.3402L54.9663 10.1591C55.9648 9.73667 57.0246 9.5135 58.0954 9.50027C58.5111 9.49727 58.9267 9.51908 59.3402 9.5656Z" fill="white"/>
<path d="M60.4053 14.4529C60.3582 14.6519 60.3309 14.8548 60.3237 15.0589C60.3237 15.3705 60.4301 15.5782 60.6465 15.6804C60.8778 15.7868 61.1307 15.8407 61.3863 15.8379C61.6848 15.8371 61.9823 15.804 62.2734 15.7393C62.5761 15.673 62.8728 15.5827 63.1604 15.4692V15.49L62.7311 17.2213C62.5083 17.2938 62.2807 17.3516 62.0498 17.3944C61.659 17.4653 61.2623 17.5006 60.8648 17.5C60.0144 17.5 59.3816 17.3199 58.9665 16.9598C58.5513 16.5997 58.3426 16.0803 58.3402 15.4017C58.341 15.2326 58.3523 15.0638 58.3739 14.8961C58.3955 14.7074 58.4311 14.5206 58.4804 14.3369L58.8476 12.8514L59.1048 11.8127L59.1563 11.6066L59.5484 10.0208L59.9032 8.59764L62.1492 7.5L61.5017 10.0312H64.3402L63.9446 11.624H61.1167L60.4053 14.4529Z" fill="white"/>
<path d="M66.6584 11.2748C66.7848 11.2217 66.9188 11.187 67.056 11.172C67.181 11.157 67.3068 11.1492 67.4328 11.1486C67.8549 11.1429 68.2764 11.1816 68.6896 11.264C68.9949 11.3314 69.2918 11.43 69.5752 11.558L70.3402 9.99255C69.9757 9.83554 69.5931 9.72052 69.2002 9.6499C68.6816 9.54651 68.1529 9.49633 67.6231 9.50021C66.4624 9.50021 65.5919 9.73526 65.0115 10.2054C64.4314 10.6729 64.1083 11.37 64.1354 12.0954C64.1309 12.3405 64.1705 12.5845 64.2522 12.8168C64.3283 13.019 64.4484 13.2034 64.6045 13.3578C64.7774 13.5241 64.9764 13.6634 65.1943 13.7708C65.4621 13.9027 65.7391 14.0165 66.0234 14.1117C66.2815 14.2109 66.4944 14.292 66.6621 14.3642C66.8029 14.4192 66.9364 14.49 67.0597 14.5752C67.1434 14.6323 67.2124 14.7069 67.2613 14.7934C67.3018 14.8744 67.3218 14.9633 67.3198 15.0531C67.3135 15.2778 67.1848 15.483 66.9806 15.5941C66.7545 15.7456 66.3437 15.8202 65.7483 15.8177C65.267 15.8281 64.7876 15.7554 64.3332 15.6031C64.1241 15.5292 63.9394 15.4589 63.7792 15.3903L63.3402 17.109C63.442 17.1469 63.5569 17.183 63.6794 17.219C63.9778 17.304 64.2819 17.3696 64.5895 17.4156C64.9923 17.474 65.3993 17.5018 65.8067 17.4986C66.3677 17.5115 66.9272 17.4365 67.463 17.2768C67.8764 17.1535 68.2605 16.9538 68.5935 16.6888C69.1223 16.2538 69.4287 15.6212 69.4339 14.9539C69.4393 14.6911 69.4031 14.429 69.3265 14.1766C69.2545 13.9678 69.134 13.7773 68.9741 13.6193C68.7959 13.4453 68.5922 13.297 68.3693 13.1793C68.0871 13.0336 67.7965 12.9036 67.4988 12.7897C67.218 12.6923 66.9938 12.6094 66.8242 12.53C66.6863 12.4713 66.5561 12.3975 66.436 12.31C66.358 12.2576 66.2973 12.1851 66.2608 12.1008C66.2304 12.0199 66.2157 11.9343 66.2175 11.8483C66.2132 11.7216 66.259 11.598 66.3456 11.5021C66.4314 11.4055 66.5381 11.328 66.6584 11.2748Z" fill="white"/>
<path d="M59.3605 9.4126L59.3183 9.5876L59.3622 9.4126H59.3605Z" fill="white"/>
<path d="M59.3614 9.4126L59.3174 9.5876L59.3631 9.4126H59.3614Z" fill="white"/>
<path d="M21.3402 11C21.3402 16.799 16.6392 21.5 10.8402 21.5C5.04122 21.5 0.34021 16.799 0.34021 11C0.34021 5.20101 5.04122 0.5 10.8402 0.5C13.6251 0.499534 16.2961 1.60563 18.2653 3.57486C20.2346 5.5441 21.3407 8.21508 21.3402 11Z" fill="white"/>
<path d="M13.3402 5.50168C13.3393 6.60624 12.4431 7.50092 11.3385 7.5C10.234 7.49907 9.33929 6.60289 9.34021 5.49833C9.34114 4.39376 10.2373 3.49908 11.3419 3.5C11.8725 3.5 12.3812 3.711 12.7561 4.08648C13.131 4.46196 13.3411 4.97111 13.3402 5.50168Z" fill="#222D78"/>
<path fill-rule="evenodd" clip-rule="evenodd" d="M16.351 8.97105C16.8381 9.13504 17.278 9.49442 17.3308 10.0178C17.3907 10.4452 17.1544 10.8465 16.9326 11.1954C16.4017 12.0015 15.7785 12.7481 15.0748 13.4214C14.2568 14.2344 13.3952 14.9915 12.5154 15.7365C13.0807 16.1761 13.6533 16.6087 14.235 17.0292L14.1769 17.085L13.0262 18.1841L12.699 18.4998C12.6899 18.5071 12.3544 18.2497 12.2191 18.146C12.1923 18.1253 12.1733 18.1108 12.1664 18.1056L11.5319 17.6188C9.67959 16.2023 7.85633 14.7316 6.26029 13.062C5.62769 12.4009 4.99873 11.6943 4.56791 10.8918C4.45989 10.709 4.38607 10.5094 4.34977 10.3022C4.31708 10.0536 4.36871 9.80156 4.49702 9.58339C4.75151 9.16121 5.21142 8.98501 5.68223 8.87161C6.67976 8.63107 7.72398 8.58623 8.75009 8.54217C8.83282 8.53861 8.91544 8.53506 8.99791 8.53142C9.86501 8.49304 10.7357 8.49653 11.6047 8.507C12.6978 8.50994 13.79 8.56817 14.8767 8.68145C15.1276 8.71111 15.3821 8.74251 15.6311 8.7931C15.7602 8.81753 15.8892 8.8437 16.0183 8.87684C16.1321 8.89783 16.2435 8.92938 16.351 8.97105ZM10.8666 14.3701L11.0066 14.2533L11.0156 14.248C11.7264 13.6549 12.4263 13.046 13.0989 12.411C13.6641 11.8907 14.193 11.3353 14.6822 10.7484C14.3768 10.71 14.0696 10.6856 13.7624 10.6647C12.619 10.5792 11.4701 10.567 10.3249 10.5792C9.21889 10.5762 8.11365 10.6345 7.01465 10.7537C7.54826 11.3913 8.12644 11.9934 8.7452 12.5558C9.10028 12.8908 9.46384 13.2193 9.83589 13.5415C10.0286 13.7101 10.2231 13.8764 10.4194 14.0404L10.7284 14.3021L10.8102 14.3701C10.8284 14.4015 10.8484 14.4015 10.8666 14.3701Z" fill="#222D78"/>
</svg>

<svg width="71" height="22" viewBox="0 0 71 22" fill="none" xmlns="http://www.w3.org/2000/svg"><path fill-rule="evenodd" clip-rule="evenodd" d="M29.888 9.502a2.736 2.736 0 011.766.557c.455.366.71.937.685 1.532a2.44 2.44 0 01-.395 1.402c-.28.398-.652.718-1.082.93a5.575 5.575 0 01-1.62.513c-.664.11-1.337.162-2.01.157-.002.18.03.358.091.526.064.16.17.297.305.398.17.122.36.208.562.253.29.067.588.098.885.093.4.002.799-.043 1.189-.136a4.61 4.61 0 00.787-.246l-.398 1.713a6.058 6.058 0 01-1.958.306c-.52.01-1.039-.072-1.532-.241a2.723 2.723 0 01-1.048-.659 2.615 2.615 0 01-.591-.998 4.086 4.086 0 01-.183-1.266c0-.62.104-1.237.308-1.82a4.525 4.525 0 01.896-1.547 4.326 4.326 0 013.343-1.467zm-.024 3.266c.202-.1.375-.252.502-.443a.926.926 0 00.142-.454.697.697 0 00-.257-.577 1.154 1.154 0 00-.726-.204c-.498.006-.98.184-1.37.506-.435.34-.736.883-.904 1.628a8.343 8.343 0 001.62-.127c.345-.058.68-.169.993-.329z" fill="#fff"/><path d="M36.106 9.356a2.007 2.007 0 011.056-.26 4.9 4.9 0 011.376.172c.336.094.656.236.947.422l.855-1.47a6.3 6.3 0 00-.418-.217 3.958 3.958 0 00-.612-.237 6.96 6.96 0 00-.826-.186 6.264 6.264 0 00-1.055-.08c-1.2 0-2.125.274-2.776.821a2.74 2.74 0 00-.983 2.19c-.008.32.041.64.146.946.089.244.224.47.4.667.173.19.377.352.605.48.233.135.487.27.758.405.219.105.423.207.615.311.178.098.345.214.497.346.136.117.25.256.334.41.084.157.127.33.123.505.008.216-.047.43-.158.619a1.326 1.326 0 01-.41.41 1.74 1.74 0 01-.598.231c-.24.046-.485.069-.73.067-.269.001-.537-.023-.8-.072a4.993 4.993 0 01-.698-.173 4.844 4.844 0 01-.563-.242 7.603 7.603 0 01-.416-.218v.01l-.435 1.7c.206.11.421.2.645.272a6.759 6.759 0 002.062.315c1.31 0 2.323-.274 3.04-.82.715-.548 1.075-1.35 1.079-2.408a2.654 2.654 0 00-.168-.99 2.335 2.335 0 00-.468-.727 2.976 2.976 0 00-.703-.545 9.948 9.948 0 00-.899-.45 4.338 4.338 0 01-.891-.492.933.933 0 01-.365-.8c0-.433.144-.736.434-.912z" fill="#fff"/><path fill-rule="evenodd" clip-rule="evenodd" d="M43.532 10c.966 0 1.678.244 2.129.738a2.71 2.71 0 01.677 1.905 6.137 6.137 0 01-.295 1.86 4.606 4.606 0 01-.849 1.59 4.135 4.135 0 01-1.457 1.098 4.816 4.816 0 01-2.06.407c-.21 0-.373-.007-.489-.017-.1-.009-.2-.024-.298-.047l-.389 1.559-2.16.907 2.35-9.51c.227-.095.461-.172.7-.23a8.93 8.93 0 01.766-.154 10.8 10.8 0 01.653-.075l.085-.008c.237-.023.449-.023.637-.023zm.156 5.008c.244-.301.429-.646.545-1.014.128-.393.194-.803.195-1.216 0-.152-.016-.302-.047-.45-.03-.141-.09-.274-.176-.39a.844.844 0 00-.361-.27 1.568 1.568 0 00-.614-.104 4.04 4.04 0 00-.526.03 3.39 3.39 0 00-.384.077l-1.053 4.25a.459.459 0 00.176.031h.205c.402.008.8-.078 1.163-.25.34-.165.64-.402.877-.694zM46.986 16.716c.432.521 1.092.782 1.98.782a3.895 3.895 0 001.912-.433c.534-.284 1-.683 1.367-1.17.371-.493.65-1.052.823-1.648a6.62 6.62 0 00.272-1.876c0-.95-.236-1.665-.708-2.146a2.498 2.498 0 00-1.863-.723 3.958 3.958 0 00-1.905.439 4.269 4.269 0 00-1.382 1.17 5.3 5.3 0 00-.846 1.648 6.393 6.393 0 00-.296 1.883c-.002.865.213 1.554.646 2.074zm3.223-1.236c-.24.19-.536.292-.84.287h.005c-.434 0-.722-.148-.864-.439a2.778 2.778 0 01-.212-1.199c.004-.325.05-.649.138-.962.083-.33.21-.648.377-.944.161-.28.375-.526.628-.722.238-.19.532-.29.834-.29.45.003.741.149.885.44.158.378.23.788.21 1.198a3.887 3.887 0 01-.53 1.909c-.167.276-.38.52-.63.722z" fill="#fff"/><path d="M59.364 9.396l-.05.208.052-.208h-.002z" fill="#fff"/><path d="M59.34 9.566l-.019.087-.376 1.704-.027.127a6.865 6.865 0 00-.816-.046c-.274 0-.548.02-.82.057a3.457 3.457 0 00-.777.187L55.221 17.5h-1.88l1.625-7.34a8.285 8.285 0 013.13-.66c.415-.003.83.02 1.244.066zM60.405 14.453a3.106 3.106 0 00-.081.606c0 .312.106.52.323.621.23.107.484.16.74.158.298 0 .595-.034.886-.099.303-.066.6-.156.887-.27v.021l-.429 1.731c-.223.073-.45.13-.681.173-.391.071-.788.107-1.185.106-.85 0-1.483-.18-1.898-.54-.416-.36-.624-.88-.627-1.558.001-.17.012-.338.034-.506.021-.189.057-.375.106-.56l.368-1.485.257-1.038.051-.206.392-1.586.355-1.423L62.15 7.5l-.647 2.531h2.838l-.395 1.593h-2.828l-.712 2.829zM66.658 11.275c.127-.053.26-.088.398-.103.125-.015.25-.023.377-.023.422-.006.843.033 1.257.115.305.067.602.166.885.294l.765-1.565a5.213 5.213 0 00-1.14-.343 7.777 7.777 0 00-1.577-.15c-1.16 0-2.031.235-2.612.705a2.317 2.317 0 00-.876 1.89c-.004.245.035.49.117.722.076.202.196.386.353.54.172.167.371.306.59.414.267.132.544.245.828.34.258.1.471.181.64.253.14.055.273.126.397.211a.655.655 0 01.201.218c.04.081.06.17.059.26a.639.639 0 01-.34.541c-.226.152-.636.226-1.232.224-.481.01-.96-.063-1.415-.215a9.296 9.296 0 01-.554-.213l-.439 1.719c.102.038.217.074.34.11.298.085.602.15.91.197.402.058.81.086 1.217.083a5.37 5.37 0 001.656-.222 3.355 3.355 0 001.13-.588 2.27 2.27 0 00.84-1.735 2.499 2.499 0 00-.107-.777 1.448 1.448 0 00-.352-.558 2.61 2.61 0 00-.605-.44 8.582 8.582 0 00-.87-.39 7.43 7.43 0 01-.675-.259 1.968 1.968 0 01-.388-.22.484.484 0 01-.175-.21.677.677 0 01-.043-.252.491.491 0 01.128-.346.91.91 0 01.312-.227z" fill="#fff"/><path d="M59.36 9.413l-.042.175.044-.175h-.002z" fill="#fff"/><path d="M59.361 9.413l-.044.175.046-.175h-.002zM21.34 11c0 5.799-4.7 10.5-10.5 10.5C5.041 21.5.34 16.799.34 11S5.041.5 10.84.5A10.498 10.498 0 0121.34 11z" fill="#fff"/><path d="M13.34 5.502a2 2 0 11-4-.004 2 2 0 014 .004z" fill="#222D78"/><path fill-rule="evenodd" clip-rule="evenodd" d="M16.351 8.971c.487.164.927.523.98 1.047.06.427-.177.829-.398 1.177a12.909 12.909 0 01-1.858 2.226c-.818.813-1.68 1.57-2.56 2.316.566.44 1.138.872 1.72 1.292l-.058.056-1.15 1.1-.328.315c-.01.007-.345-.25-.48-.354a6.957 6.957 0 00-.053-.04l-.634-.487c-1.852-1.417-3.676-2.887-5.272-4.557-.632-.661-1.261-1.368-1.692-2.17a1.754 1.754 0 01-.218-.59c-.033-.248.019-.5.147-.719.255-.422.714-.598 1.185-.711.998-.24 2.042-.286 3.068-.33l.248-.01a46.367 46.367 0 012.607-.025c1.093.003 2.185.061 3.272.174a9.243 9.243 0 011.141.196c.114.02.226.052.333.094zm-5.484 5.4l.14-.118.009-.005c.71-.593 1.41-1.202 2.083-1.837a17.421 17.421 0 001.583-1.663 16.167 16.167 0 00-.92-.083 40.353 40.353 0 00-3.437-.086 29.947 29.947 0 00-3.31.175c.533.637 1.111 1.24 1.73 1.802.355.335.719.663 1.09.986.194.168.388.334.584.498l.31.262.081.068c.018.032.038.032.057 0z" fill="#222D78"/></svg>
